X: 41882
T: Vodka And Chocolate
R: reel
M: 4/4
K: Edorian
D|E2BA FdcF|G3A (Ad)ce|~E2BA (EF) D/E/F|GAGE (EF)FD|
E2BA FdcF|GFGA (Ad)ce|~E2BA (EF2)F|GAGA B/c/d FD|
(DE)EE F/E/F D/E/F|GFGA (Ad)ce|~E2BA (EF) D/E/F|GEGE (EF) D/E/F|
~E2BF GdcF|G3A (Ad)ce|~E2BA (EF2)F|GECG FE^DF||
GABc dcdB|(Bc)cA Bafc|GABc dcde|ecAF cBBA|
GABc dcdB|(Bc) A/B/c Bafe|dadB (Bc2)c-|cBBA FBBA|
GABc dedB|(Bc) A/B/c Bafc|GABc dcde|ecAF cBBA|
GABc dcdB|[c2E]A/B/c Bafe|dB B/c/d fdBA|GECG F/E/D B,F|

